img/Icon-Box.svg

<svg fill="none" height="48" viewBox="0 0 47 48" width="47" xmlns="http://www.w3.org/2000/svg"><rect fill="#f0bb1f" height="48" rx="13" width="47"/><path d="m13.5446 17.4755c-.2966 0-.5392-.2427-.5446-.5392v-3.3917c0-.302.2426-.5446.5446-.5446h3.3917c.2965 0 .5392.2426.5392.5446v1.1809h13.049v-1.1809c0-.2966.2427-.5392.5392-.5446h3.3917c.2966 0 .5392.2426.5446.5446v3.3917c0 .2965-.2426.5392-.5446.5392h-1.1809v13.049h1.1809c.2966 0 .5392.2427.5446.5392v3.3917c0 .2966-.2426.5392-.5446.5446h-3.3917c-.2965 0-.5392-.2426-.5392-.5446v-1.1809h-13.049v1.1809c0 .2966-.2427.5392-.5392.5446h-3.3917c-.2966 0-.5392-.2426-.5446-.5446v-3.3917c0-.2965.2426-.5392.5446-.5392h1.1809v-13.049zm20.377-1.0784v-2.3187h-2.3187v2.3187zm-2.3187 17.5245h2.3187v-2.3187h-2.3187zm-14.1274-2.8579v1.1324h13.049v-1.1324c0-.2965.2427-.5392.5392-.5392h1.1324v-13.049h-1.1324c-.2965 0-.5392-.2427-.5392-.5392v-1.1324h-13.049v1.1324c0 .2965-.2427.5392-.5392.5392h-1.1324v13.049h1.1324c.2965 0 .5392.2427.5392.5392zm-3.3971.5392v2.3187h2.3187v-2.3187zm2.3187-15.2058v-2.3187h-2.3187v2.3187z" fill="#fff"/></svg>

<svg width="47" height="48" viewBox="0 0 47 48" fill="none" xmlns="http://www.w3.org/2000/svg">
<g id="Group 7">
<rect id="Rectangle 21" width="47" height="48" rx="13" fill="#F0BB1F"/>
<g id="selection 1">
<g id="Group">
<g id="Group_2">
<path id="Vector" d="M13.5446 17.4755C13.248 17.4755 13.0054 17.2328 13 16.9363V13.5446C13 13.2426 13.2426 13 13.5446 13H16.9363C17.2328 13 17.4755 13.2426 17.4755 13.5446V14.7255H30.5245V13.5446C30.5245 13.248 30.7672 13.0054 31.0637 13H34.4554C34.752 13 34.9946 13.2426 35 13.5446V16.9363C35 17.2328 34.7574 17.4755 34.4554 17.4755H33.2745V30.5245H34.4554C34.752 30.5245 34.9946 30.7672 35 31.0637V34.4554C35 34.752 34.7574 34.9946 34.4554 35H31.0637C30.7672 35 30.5245 34.7574 30.5245 34.4554V33.2745H17.4755V34.4554C17.4755 34.752 17.2328 34.9946 16.9363 35H13.5446C13.248 35 13.0054 34.7574 13 34.4554V31.0637C13 30.7672 13.2426 30.5245 13.5446 30.5245H14.7255V17.4755H13.5446ZM33.9216 16.3971V14.0784H31.6029V16.3971H33.9216ZM31.6029 33.9216H33.9216V31.6029H31.6029V33.9216ZM17.4755 31.0637V32.1961H30.5245V31.0637C30.5245 30.7672 30.7672 30.5245 31.0637 30.5245H32.1961V17.4755H31.0637C30.7672 17.4755 30.5245 17.2328 30.5245 16.9363V15.8039H17.4755V16.9363C17.4755 17.2328 17.2328 17.4755 16.9363 17.4755H15.8039V30.5245H16.9363C17.2328 30.5245 17.4755 30.7672 17.4755 31.0637ZM14.0784 31.6029V33.9216H16.3971V31.6029H14.0784ZM16.3971 16.3971V14.0784H14.0784V16.3971H16.3971Z" fill="white"/>
</g>
</g>
</g>
</g>
</svg>
